X: 131
T: No_215_We_Are_Tying_up_the_Dead_Animal.krn
N: Derived from No_215_We_Are_Tying_up_the_Dead_Animal.krn
%%abc-version 2.0
%%abcx-abcm2ps-target-version 5.9.1 (29 Sep 2008)
%%abc-creator hum2abc beta
%%abcx-conversion-date 2019/03/15 08:38:45
%%humdrum-veritas 883895609
%%humdrum-veritas-data 2269989380
%%linebreak <none>
%%barnumbers 0
L: 1/8
M: 2/4
K: Ab clef=bass
[K:clef=bass][M:2/4]D,B,,- B,,E, | 
E,3E, | 
E,2z2 | 
D,B,,- B,,E, | 
E,3E, | 
E,4 ]|:  
B,2B,2 | 
DDD2 | 
B,2A,2 | 
B,B,A,2 ||  
[M:3/4]G,2E,2A,A, | 
G,2z2(G,3/E,/) ||  
[M:2/4]E,3E, ||  
[M:3/4]E,2z2B,,3/E,/ ||  
[M:2/4]E,3E, | 
E,4 | 
A,2A,2 | 
A,2B,2 | 
C2B,2 | 
B,A, B,A, ||  
[M:3/4]F,2z2F,3/E,/ ||  
[M:2/4]E,3E, ||  
[M:3/4]E,2z2B,,3/E,/ ||  
[M:2/4]E,3E, | 
E,4 :|]  
E,2G,E, | 
A,4 | 
E,/E,/E, F,E, |]  



